Papirus-Dark/symbolic/status/my-caffeine-on-symbolic.svg

<?xml version='1.0' encoding='UTF-8' standalone='no'?>
<svg height="16" style="enable-background:new" version="1.1" width="16" xmlns="http://www.w3.org/2000/svg">
<path
     inkscape:connector-curvature="0"
     style="opacity:1;fill:#d3dae3;fill-opacity:1"
     d="m 7.1933592,4.219e-4 c -1.0982,1.3842201 -1.42735,1.5665628 -1.03125,2.4476328 C 6.5212092,3.2467248 7.4490222,3.15297 6.9824222,5 c 0.7664,-0.89992 1.375237,-1.5421046 0.773437,-2.4640547 -0.6122,-0.9377 -0.9475,-1.0075234 -0.5625,-2.5355234 z m 2.9999998,0 C 9.0951592,1.384642 8.7660092,1.5669847 9.1621092,2.4480547 9.5212092,3.2467248 10.449022,3.15297 9.9824222,5 10.748822,4.10008 11.357659,3.4578955 10.755859,2.5359453 10.143659,1.5982454 9.8083592,1.5284219 10.193359,4.219e-4 Z m 3,0 c -1.0982,1.3842201 -1.42735,1.5665628 -1.03125,2.4476328 C 12.521209,3.2467248 13.449022,3.15297 12.982422,5 c 0.7664,-0.89992 1.375237,-1.5421045 0.773437,-2.4640547 -0.6122,-0.9376999 -0.9475,-1.0075234 -0.5625,-2.5355234 z M 4.0000002,6 c -2.209139,0 -4,1.790861 -4,4 0,2.209139 1.790861,4 4,4 0.242459,-8.38e-4 0.48434,-0.02372 0.722656,-0.06836 C 5.4620202,15.481091 6.9580362,16 10,16 c 6,0 6,-2 6,-10 z m 0,2 h 0.0078 c 0.01161,1.596219 0.05217,2.938455 0.195312,3.986328 -0.06743,0.008 -0.135226,0.01257 -0.203122,0.01367 -1.10457,0 -2,-0.895431 -2,-2 0,-1.104569 0.89543,-2 2,-2 z"/>
</svg>

<svg xmlns="http://www.w3.org/2000/svg" width="16" height="16" version="1.1">
 <path style="fill:#d3dae3" d="M 7.1934,0 C 6.0952,1.38 5.766,1.57 6.1621,2.45 6.5212,3.25 7.449,3.15 6.9824,5 7.7488,4.1 8.3577,3.46 7.7559,2.54 7.1437,1.6 6.8084,1.53 7.1934,0 Z M 10.193,0 C 9.0952,1.38 8.766,1.57 9.1621,2.45 9.5212,3.25 10.449,3.15 9.9824,5 10.749,4.1 11.358,3.46 10.756,2.54 10.144,1.6 9.8084,1.53 10.193,0 Z M 13.193,0 C 12.095,1.38 11.766,1.57 12.162,2.45 12.521,3.25 13.449,3.15 12.982,5 13.749,4.1 14.358,3.46 13.756,2.54 13.144,1.6 12.808,1.53 13.193,0 Z M 4,6 C 1.7909,6 0,7.79 0,10 0,12.21 1.7909,14 4,14 4.2425,14 4.4843,13.98 4.7227,13.93 5.462,15.48 6.958,16 10,16 16,16 16,14 16,6 Z M 4,8 H 4.0078 C 4.0194,9.6 4.06,10.94 4.2031,11.99 4.1357,11.99 4.0679,12 4,12 2.8954,12 2,11.1 2,10 2,8.9 2.8954,8 4,8 Z"/>
</svg>
